X: 21887
T: Kiss The Maid Behind The Barrel
R: reel
M: 4/4
K: Gmajor
|:DG~G2 AG GF|DG~G2 cAFA|DG~G2 AGFA|defd cAFA:|
dg~g2 aggf|dg~g2 agfe|df~f2 af~f2|defd cAFA|
dg~g2|agfg|abag ~f3g|af (3gfe fde^c|dfeg fdcA||
G2dG AGdG|~G2dB cAFA|~G3A ~B3c|defd cAFA|
G2dG AGdG|~G2dB cAFA|~B3G ~A3B|defd cAFA||
|:~B3G ~A3G|~B3c dedc|~B3G AGFA|defd cAFA:|
BDGB ADFA|BDGB dedc|BDGB AGFA|defd cAFA|
BBGA AGBB|GAAB dedc|BBBG AGFA|defd cAFA||

